src/android-print.svg

<?xml version="1.0" encoding="utf-8"?>
<!-- Generated by IcoMoon.io -->
<!DOCTYPE svg PUBLIC "-//W3C//DTD SVG 1.1//EN" "http://www.w3.org/Graphics/SVG/1.1/DTD/svg11.dtd">
<svg version="1.1" xmlns="http://www.w3.org/2000/svg" xmlns:xlink="http://www.w3.org/1999/xlink" width="512" height="512" viewBox="0 0 512 512">
<path fill="#000000" d="M399.95 160h-287.9c-35.226 0-64.050 28.803-64.050 64v138.667h79.899v85.333h256.201v-85.333h79.9v-138.667c0-35.197-28.825-64-64.050-64zM352 416h-192v-128h192v128zM384.101 64h-256.202v80h256.201v-80z"></path>
</svg>

<?xml version="1.0" encoding="utf-8"?>
<!-- Generator: Adobe Illustrator 16.2.1, SVG Export Plug-In . SVG Version: 6.00 Build 0)  -->
<!DOCTYPE svg PUBLIC "-//W3C//DTD SVG 1.1//EN" "http://www.w3.org/Graphics/SVG/1.1/DTD/svg11.dtd">
<svg version="1.1" id="Layer_1" xmlns="http://www.w3.org/2000/svg" xmlns:xlink="http://www.w3.org/1999/xlink" x="0px" y="0px"
	 width="512px" height="512px" viewBox="0 0 512 512" enable-background="new 0 0 512 512" xml:space="preserve">
<g>
	<path d="M399.95,160h-287.9C76.824,160,48,188.803,48,224v138.667h79.899V448h256.201v-85.333H464V224
		C464,188.803,435.175,160,399.95,160z M352,416H160V288h192V416z M384.101,64H127.899v80h256.201V64z"/>
</g>
</svg>
